src/assets/icons/sax/IconKeySquare.svg

<svg width="20" height="20" viewBox="0 0 24 24" fill="none" xmlns="http://www.w3.org/2000/svg">
<path d="M9 22H15C20 22 22 20 22 15V9C22 4 20 2 15 2H9C4 2 2 4 2 9V15C2 20 4 22 9 22Z" stroke="currentColor" stroke-width="1.5" stroke-linecap="round" stroke-linejoin="round"/>
<path d="M16.28 13.61C15.15 14.74 13.53 15.09 12.1 14.64L9.51001 17.22C9.33001 17.41 8.96001 17.53 8.69001 17.49L7.49001 17.33C7.09001 17.28 6.73001 16.9 6.67001 16.51L6.51001 15.31C6.47001 15.05 6.60001 14.68 6.78001 14.49L9.36001 11.91C8.92001 10.48 9.26001 8.86001 10.39 7.73001C12.01 6.11001 14.65 6.11001 16.28 7.73001C17.9 9.34001 17.9 11.98 16.28 13.61Z" stroke="currentColor" stroke-width="1.5" stroke-miterlimit="10" stroke-linecap="round" stroke-linejoin="round"/>
<path d="M10.45 16.28L9.59998 15.42" stroke="currentColor" stroke-width="1.5" stroke-miterlimit="10" stroke-linecap="round" stroke-linejoin="round"/>
<path d="M13.3945 10.7H13.4035" stroke="currentColor" stroke-width="2" stroke-linecap="round" stroke-linejoin="round"/>
</svg>

<svg xmlns="http://www.w3.org/2000/svg" width="20" height="20" fill="none" viewBox="0 0 24 24">
  <path stroke="currentcolor" stroke-linecap="round" stroke-linejoin="round" stroke-width="1.5" d="M9 22h6c5 0 7-2 7-7V9c0-5-2-7-7-7H9C4 2 2 4 2 9v6c0 5 2 7 7 7"/>
  <path stroke="currentcolor" stroke-linecap="round" stroke-linejoin="round" stroke-miterlimit="10" stroke-width="1.5" d="M16.28 13.61a4.2 4.2 0 0 1-4.18 1.03l-2.59 2.58c-.18.19-.55.31-.82.27l-1.2-.16c-.4-.05-.76-.43-.82-.82l-.16-1.2c-.04-.26.09-.63.27-.82l2.58-2.58a4.17 4.17 0 1 1 6.92 1.7m-5.83 2.67-.85-.86"/>
</svg>
